src/assets/metronic/worbby/global/img/icon-cook.svg

<?xml version="1.0" encoding="UTF-8"?>
<svg width="65px" height="65px" viewBox="0 0 65 65" version="1.1" xmlns="http://www.w3.org/2000/svg" xmlns:xlink="http://www.w3.org/1999/xlink">
    <!-- Generator: Sketch 41.2 (35397) - http://www.bohemiancoding.com/sketch -->
    <title>icon-cook</title>
    <desc>Created with Sketch.</desc>
    <defs>
        <linearGradient x1="0%" y1="49.9979293%" x2="99.9874969%" y2="49.9979293%" id="linearGradient-1">
            <stop stop-color="#FFB247" offset="0%"></stop>
            <stop stop-color="#FFCB33" offset="100%"></stop>
        </linearGradient>
    </defs>
    <g id="Worbby-Needor" stroke="none" stroke-width="1" fill="none" fill-rule="evenodd">
        <g id="Categories-List" transform="translate(-50.000000, -274.000000)">
            <g id="icon-cook" transform="translate(50.000000, 274.000000)">
                <g>
                    <path d="M37.9166667,54.1666667 C52.87425,54.1666667 65,42.0409167 65,27.0833333 C65,12.12575 52.87425,0 37.9166667,0 C22.9590833,0 10.8333333,12.12575 10.8333333,27.0833333 C10.8333333,42.0409167 22.9590833,54.1666667 37.9166667,54.1666667" id="Fill-1" fill="url(#linearGradient-1)"></path>
                    <path d="M41.3005667,24.7583917 C40.1110667,24.7583917 39.1458167,25.7128083 39.1458167,26.8903917 C39.1458167,28.067975 40.1110667,29.0223917 41.3005667,29.0223917 C42.4900667,29.0223917 43.4553167,28.067975 43.4553167,26.8903917 C43.4553167,25.7128083 42.4900667,24.7583917 41.3005667,24.7583917 M48.0497333,25.1895583 C47.4430667,20.732725 44.8387333,18.626725 40.30715,18.9268083 C34.1484,19.3363083 27.1067333,24.0813083 26.0884,27.3713917 C30.5029833,29.6886417 34.2090667,27.5295583 34.25565,27.5013917 C35.1439833,26.9618917 36.3042333,27.2413917 36.8480667,28.119975 C37.3929833,28.9985583 37.1145667,30.1523083 36.2273167,30.690725 C33.2969,32.4706417 26.1003167,34.0306417 19.83865,27.1655583 C16.4608167,23.4638083 13.9149833,21.8908083 11.8024833,22.1681417 C9.5394,22.464975 7.11706667,25.1440583 4.60481667,30.0331417 C3.14556667,32.8758083 3.96781667,34.125975 4.23756667,34.561475 C6.24606667,37.7941417 14.4295667,38.9998917 19.07815,38.9998917 L19.0814,38.9998917 C20.1214,38.9998917 20.9653167,39.5913917 20.9674833,40.6205583 C20.9707333,41.6508083 20.1300667,42.2498917 19.0889833,42.2498917 L19.0294,42.2498917 C18.5700667,42.2498917 17.3188167,42.3853083 15.6678167,42.2531417 C18.8528167,48.1908917 17.4813167,55.692975 16.6384833,58.8985583 C18.5570667,59.761975 22.4787333,61.2320583 27.3158167,61.2320583 C32.1940667,61.2320583 36.0984,59.8161417 38.0039833,58.9538083 C37.27165,56.112225 36.0984,49.9285583 37.9249,44.5573917 C37.3149833,44.7058083 36.7289,44.824975 36.1839833,44.902975 C36.0929833,44.915975 36.0019833,44.9246417 35.9120667,44.9246417 C34.99015,44.9246417 34.18415,44.2573083 34.0487333,43.3278083 C33.9003167,42.309475 34.6120667,41.3648083 35.64015,41.2153083 C35.8925667,41.178475 38.53265,40.7538083 41.3298167,39.2143917 C41.4132333,39.156975 41.5009833,39.1125583 41.5909,39.0703083 C45.2688167,36.9588917 49.0994833,32.8855583 48.0497333,25.1895583 M43.4878167,42.3278917 C38.2780667,47.9406417 41.9917333,59.2311417 42.0307333,59.3470583 C42.3102333,60.1758083 41.9700667,61.0858083 41.2128167,61.536475 C40.9744833,61.6773083 35.2869833,64.9998917 27.3158167,64.9998917 C19.34465,64.9998917 13.65715,61.6773083 13.4188167,61.536475 C12.6550667,61.0825583 12.3159833,60.1606417 12.6074,59.3275583 C12.6453167,59.2170583 16.4402333,48.0023917 10.8329,42.016975 C10.7364833,41.912975 10.6563167,41.8003083 10.5880667,41.6833083 C6.8224,40.889225 2.85631667,39.3628083 1.02765,36.423725 C0.0234,34.808475 -0.755516667,32.1348083 1.24431667,28.243475 C4.44015,22.022975 7.63815,18.9018917 11.3063167,18.4198083 C15.7794,17.8380583 19.7129833,21.4358083 22.6369,24.6403083 C22.7658167,24.782225 22.8958167,24.8948917 23.0258167,25.0270583 C25.5879,20.076225 33.5894,15.6323917 40.0547333,15.2033917 C46.6284,14.768975 50.9054,18.2248083 51.7872333,24.6901417 C53.0482333,33.950475 48.5069,39.4288917 43.4878167,42.3278917 M27.82065,57.0070583 C28.20415,57.8033083 27.8629,58.757725 27.0579833,59.137975 C26.31265,59.4900583 25.4784833,59.625475 24.6378167,59.625475 C22.0584,59.625475 19.40965,58.3558083 19.0304833,58.1673083 C18.23315,57.769725 17.9114,56.8088083 18.3122333,56.0201417 C18.7130667,55.231475 19.68265,54.9140583 20.4799833,55.3083917 C21.93815,56.0288083 24.5099833,56.7958083 25.6659,56.251975 C26.4697333,55.8706417 27.4360667,56.209725 27.82065,57.0070583" id="Fill-4" fill="#1E2225"></path>
                </g>
            </g>
        </g>
    </g>
</svg>

<svg xmlns="http://www.w3.org/2000/svg" width="65" height="65"><defs><linearGradient id="a" x1="0%" x2="99.9875%" y1="49.9979%" y2="49.9979%"><stop stop-color="#FFB247" offset="0%"/><stop stop-color="#FFCB33" offset="100%"/></linearGradient></defs><g fill="none" fill-rule="evenodd"><path fill="url(#a)" d="M37.9167 54.1667C52.8743 54.1667 65 42.041 65 27.0833 65 12.1257 52.8743 0 37.9167 0 22.959 0 10.8333 12.1258 10.8333 27.0833c0 14.9576 12.1258 27.0834 27.0834 27.0834"/><path fill="#1E2225" d="M41.3006 24.7584c-1.1895 0-2.1548.9544-2.1548 2.132s.9653 2.132 2.1548 2.132c1.1895 0 2.1547-.9544 2.1547-2.132s-.9652-2.132-2.1547-2.132m6.749.4312c-.6065-4.457-3.211-6.563-7.7424-6.2628-6.1588.4095-13.2005 5.1545-14.2188 8.4446 4.4146 2.3172 8.1207.1582 8.1673.13.8883-.5395 2.0485-.26 2.5924.6186.545.8786.2666 2.0323-.6207 2.5707-2.9304 1.78-10.127 3.34-16.3886-3.525-3.378-3.702-5.9237-5.275-8.0362-4.9976-2.263.297-4.6854 2.976-7.1977 7.865-1.4592 2.8428-.637 4.093-.3672 4.5285C6.246 37.794 14.4296 39 19.0782 39h.0032c1.04 0 1.884.5914 1.886 1.6206.0033 1.0302-.8373 1.6293-1.8784 1.6293h-.0596c-.4593 0-1.7106.1353-3.3616.003 3.185 5.938 1.8135 13.44.9707 16.6456 1.9186.8634 5.8402 2.3335 10.6773 2.3335 4.8783 0 8.7826-1.416 10.6882-2.2782-.7323-2.8416-1.9056-9.0252-.079-14.3964-.61.1484-1.196.2676-1.741.3456-.091.013-.182.0216-.272.0216-.9218 0-1.7278-.6673-1.8633-1.5968-.1484-1.0183.5634-1.963 1.5915-2.1125.2524-.0368 2.8924-.4615 5.6896-2.001.0834-.0573.1712-.1017.261-.144 3.678-2.1114 7.5087-6.1847 6.459-13.8807m-4.562 17.1383c-5.2097 5.6126-1.496 16.903-1.457 17.019.2794.8288-.0607 1.7388-.818 2.1895C40.9745 61.6773 35.287 65 27.3158 65c-7.971 0-13.6586-3.3227-13.897-3.4635-.7637-.454-1.1028-1.376-.8114-2.209.038-.1104 3.8328-11.325-1.7745-17.3105-.0965-.104-.1767-.2167-.245-.3337-3.7656-.794-7.7317-2.3205-9.5603-5.2596-1.0043-1.6152-1.7832-4.289.2166-8.1802 3.1959-6.2205 6.394-9.3416 10.062-9.8237 4.473-.5817 8.4067 3.016 11.3306 6.2205.1288.142.2588.2546.3888.3868 2.562-4.9508 10.5636-9.3946 17.029-9.8236 6.5736-.4344 10.8506 3.0214 11.7324 9.4867 1.261 9.2605-3.2803 14.739-8.2994 17.638m-15.667 14.679c.3834.7963.042 1.7507-.7628 2.131-.7453.352-1.5795.4875-2.4202.4875-2.5794 0-5.228-1.2697-5.6073-1.4582-.7974-.3976-1.119-1.3585-.7183-2.1472.401-.7885 1.3704-1.106 2.1678-.7116 1.458.7204 4.03 1.4874 5.186.9436.8037-.3814 1.77-.0423 2.1547.755"/></g></svg>
